dist/img/stamp_icon.svg

<svg width="40" height="35" viewBox="0 0 40 35" fill="none" xmlns="http://www.w3.org/2000/svg">
<path d="M32.5386 7.20801C31.572 7.59329 30.3965 7.81917 29.129 7.81917" stroke="black" stroke-width="1.5" stroke-linecap="round"/>
<path fill-rule="evenodd" clip-rule="evenodd" d="M32.5381 13.6059V7.20533C34.0826 6.58906 35.0952 5.56706 35.0952 4.40952C35.0952 2.52661 32.4239 1 29.1285 1C25.8332 1 23.1619 2.52661 23.1619 4.40952C23.1619 5.33606 23.8105 6.1748 24.8607 6.78937C25.3772 7.09111 25.719 7.6213 25.719 8.21881V13.6059C25.719 15.239 24.6177 16.348 23.0553 16.9191C21.5407 17.4723 20.6047 18.4755 20.6047 19.5504V24.345C20.6047 26.516 24.4208 28.2762 29.1285 28.2762C33.8362 28.2762 37.6524 26.516 37.6524 24.345V19.5504C37.6524 18.4755 36.7164 17.4723 35.2018 16.9191C33.6393 16.348 32.5381 15.239 32.5381 13.6059Z" stroke="black" stroke-width="1.5"/>
<path d="M23.7088 23.0423C25.1817 23.65 27.0697 24.0148 29.1282 24.0148C33.8359 24.0148 37.652 22.1064 37.652 19.7529" stroke="black" stroke-width="1.5" stroke-linecap="round"/>
<path d="M21.4571 6.9668H8.40463L1 34.243H38.5048L37.3498 29.987" stroke="black" stroke-width="1.5" stroke-linecap="round" stroke-linejoin="round"/>
<path d="M12.0809 13.7856H22.3095" stroke="black" stroke-width="1.5" stroke-linecap="round"/>
<path d="M11.2286 17.1952H18.0476" stroke="black" stroke-width="1.5" stroke-linecap="round"/>
<path d="M8.67145 29.1283H14.6381" stroke="black" stroke-width="1.5" stroke-linecap="round"/>
</svg>

<svg width="40" height="35" fill="none" xmlns="http://www.w3.org/2000/svg"><path d="M32.539 7.208c-.967.385-2.143.611-3.41.611" stroke="#000" stroke-width="1.5" stroke-linecap="round"/><path clip-rule="evenodd" d="M32.538 13.606v-6.4c1.545-.617 2.557-1.639 2.557-2.796 0-1.883-2.671-3.41-5.966-3.41-3.296 0-5.967 1.527-5.967 3.41 0 .926.649 1.765 1.699 2.38.516.301.858.831.858 1.429v5.387c0 1.633-1.101 2.742-2.664 3.313-1.514.553-2.45 1.556-2.45 2.631v4.795c0 2.171 3.816 3.931 8.523 3.931 4.708 0 8.524-1.76 8.524-3.931V19.55c0-1.075-.936-2.078-2.45-2.63-1.563-.572-2.664-1.681-2.664-3.314z" stroke="#000" stroke-width="1.5"/><path d="M23.709 23.042c1.473.608 3.36.973 5.42.973 4.707 0 8.523-1.909 8.523-4.262" stroke="#000" stroke-width="1.5" stroke-linecap="round"/><path d="M21.457 6.967H8.405L1 34.243h37.505l-1.155-4.256" stroke="#000" stroke-width="1.5" stroke-linecap="round" stroke-linejoin="round"/><path d="M12.08 13.786h10.23m-11.081 3.409h6.819M8.671 29.128h5.967" stroke="#000" stroke-width="1.5" stroke-linecap="round"/></svg>
